X:38
T:Favorite Dram, The
T:Ho r\`o mo bhoban an dr\`am
R:Slip Jig
S:Simon Fraser Collection
N:No.164
O:Scottish
M:9/8
L:1/8
K:G
c|B2c dBG G2f|g2e dBG G2c|B2c dBG GAB|c2B AFD D2:|
|:c|(B>AB) (B>AB) G2 c|B2c dcB G2c|1 (B>AB) (B>AB) G2B|
c2B AFD D2:|2 B2c dBG gdB|c2B AFD D2||
|:d|gdB gdB G2f|g2e dBG G2f|1 gdB gdB G2B|
c2B AFD D2:|2 Bcd def gdB|c2B AFD D2||

